icon-themes/breeze_svg/cmd/32/zoomout.svg

<svg viewBox="0 0 32 32" xmlns="http://www.w3.org/2000/svg"><path d="m4 4v1 9h1v-9h2 20v22h-9v1h9 1v-24h-1-20zm19.130859 4.1621094-7.130859 7.1308596v-5.3632815h-1v5.6562505 1.414062h1.414062 5.65625v-1h-5.363281l7.13086-7.1308594zm-19.130859 9.8378906v3h1v-2h2v-1zm7 0v1h2v2h1v-3zm-7 7v3h3v-1h-2v-2zm9 0v2h-2v1h3v-3z" fill="#4d4d4d"/></svg>

<svg xmlns="http://www.w3.org/2000/svg" viewBox="0 0 32 32">
 <path 
     style="fill:#4d4d4d" 
     d="M 4 4 L 4 5 L 4 14 L 5 14 L 5 5 L 7 5 L 27 5 L 27 27 L 18 27 L 18 28 L 27 28 L 28 28 L 28 4 L 27 4 L 7 4 L 4 4 z M 23.130859 8.1621094 L 16 15.292969 L 16 9.9296875 L 15 9.9296875 L 15 15.585938 L 15 17 L 16.414062 17 L 22.070312 17 L 22.070312 16 L 16.707031 16 L 23.837891 8.8691406 L 23.130859 8.1621094 z M 4 18 L 4 21 L 5 21 L 5 19 L 7 19 L 7 18 L 4 18 z M 11 18 L 11 19 L 13 19 L 13 21 L 14 21 L 14 18 L 11 18 z M 4 25 L 4 28 L 7 28 L 7 27 L 5 27 L 5 25 L 4 25 z M 13 25 L 13 27 L 11 27 L 11 28 L 14 28 L 14 25 L 13 25 z "
     />
</svg>
